!!!OTL: Der blaue Storch
!!!ARE: Europa, Mitteleuropa, Deutschland
!!!SCT: A0087
!!!YEM: Copyright 1995, estate of Helmut Schaffrath.
**kern
*ICvox
*Ivox
!! Mixed meters:  3/2; 3/1
*M3/2
*k[]
*a:
{2ee
=1
1ee
2ee
=2
2ee
2ffn
2ffn
=3
1ee
2ee
=4
1dd
2dd}
=5
*M3/1
{1aa
1ggn
2ffn
2dd
=6
*M3/2
1ee
2a
=7
1ee
2a
=8
1ee}
{2ee
=9
*M3/1
1ee
1ffn
2ggn
2ee
=10
1dd
2dd
1a}
{2b
=11
1ccn
1ccn
2b
2b
=12
*M3/2
1a
2e
=13
1a
2e
=14
1a}
==
!!!AGN: Romanze, Ballade, Lied
!! Baseler Tenor. Hs. von 1560-70 fol. 68b.
!!!ONB: ESAC (Essen Associative Code) Database: ALTDEU
!!!AMT: irregular
!!!AIN: vox
!!!EED: Helmut Schaffrath
!!!EEV: 1.0
*-
